deployments/warp_routes/RDO/logo.svg

<svg xmlns="http://www.w3.org/2000/svg" width="400" height="400" fill="none" viewBox="0 0 400 400"><rect width="400" height="400" fill="#BD3227" rx="200"/><g clip-path="url(#a)"><g fill="#fff" clip-path="url(#b)"><path d="M256.654 133.873h-50.163l28.938-12.292a14.3 14.3 0 0 0 7.435-7.773 14.28 14.28 0 0 0-.091-10.747 14.3 14.3 0 0 0-7.565-7.647 14.35 14.35 0 0 0-10.765-.227l-97.507 39.339C94.116 147.768 70 171.995 70 207.459v30.955C70 278.988 102.917 312 143.378 312h113.276c40.455 0 73.372-32.993 73.372-73.586v-30.955c-.026-40.574-32.943-73.586-73.372-73.586m44.836 104.541c0 24.796-20.091 44.967-44.836 44.967H143.378c-24.725 0-44.861-20.171-44.861-44.967v-30.955c0-28.076 30.623-44.967 44.842-44.967h113.295c24.725 0 44.836 20.177 44.836 44.967zm-13.986-133.95c7.874 0 14.258-6.372 14.258-14.232S295.378 76 287.504 76c-7.875 0-14.258 6.372-14.258 14.232s6.383 14.232 14.258 14.232"/><path d="M142.017 248.376c-8.094 0-14.653-6.372-14.653-14.232v-18.573c0-7.86 6.559-14.232 14.653-14.232s14.654 6.372 14.654 14.232v18.573c0 7.86-6.559 14.232-14.654 14.232m58.602 6.65c-7.875 0-14.258-4.929-14.258-10.997V203.94c0-6.081 6.383-10.998 14.258-10.998s14.258 4.936 14.258 10.998v40.07c0 6.087-6.384 11.016-14.258 11.016m57.461-7.219c-3.782 0-7.408-1.5-10.082-4.169a14.22 14.22 0 0 1-4.176-10.063v-18.573c0-3.775 1.502-7.395 4.176-10.064a14.27 14.27 0 0 1 10.082-4.168c3.781 0 7.408 1.499 10.082 4.168a14.22 14.22 0 0 1 4.176 10.064v18.573c0 3.774-1.502 7.394-4.176 10.063a14.27 14.27 0 0 1-10.082 4.169"/></g></g><defs><clipPath id="a"><path fill="#fff" d="M70 76h260v236H70z"/></clipPath><clipPath id="b"><path fill="#fff" d="M70 76h260v236H70z"/></clipPath></defs></svg>

<svg width="400" height="400" viewBox="0 0 400 400" fill="none" xmlns="http://www.w3.org/2000/svg">
<rect width="400" height="400" rx="200" fill="#BD3227"/>
<g clip-path="url(#clip0_25_2)">
<g clip-path="url(#clip1_25_2)">
<path d="M256.654 133.873H206.491L235.429 121.581C238.826 120.054 241.493 117.266 242.864 113.808C244.235 110.35 244.202 106.495 242.773 103.061C241.344 99.6269 238.63 96.8838 235.208 95.4138C231.786 93.9437 227.924 93.8625 224.443 95.1874L126.936 134.526C94.116 147.768 70 171.995 70 207.459V238.414C70 278.988 102.917 312 143.378 312H256.654C297.109 312 330.026 279.007 330.026 238.414V207.459C330 166.885 297.083 133.873 256.654 133.873ZM301.49 238.414C301.49 263.21 281.399 283.381 256.654 283.381H143.378C118.653 283.381 98.5166 263.21 98.5166 238.414V207.459C98.5166 179.383 129.14 162.492 143.359 162.492H256.654C281.379 162.492 301.49 182.669 301.49 207.459V238.414Z" fill="white"/>
<path d="M287.504 104.464C295.378 104.464 301.762 98.0922 301.762 90.2321C301.762 82.3719 295.378 76 287.504 76C279.629 76 273.246 82.3719 273.246 90.2321C273.246 98.0922 279.629 104.464 287.504 104.464Z" fill="white"/>
<path d="M142.017 248.376C133.923 248.376 127.364 242.004 127.364 234.144V215.571C127.364 207.711 133.923 201.339 142.017 201.339C150.112 201.339 156.671 207.711 156.671 215.571V234.144C156.671 242.004 150.112 248.376 142.017 248.376Z" fill="white"/>
<path d="M200.619 255.026C192.744 255.026 186.361 250.097 186.361 244.029V203.94C186.361 197.859 192.744 192.942 200.619 192.942C208.493 192.942 214.877 197.878 214.877 203.94V244.01C214.877 250.097 208.493 255.026 200.619 255.026Z" fill="white"/>
<path d="M258.08 247.807C254.298 247.807 250.672 246.307 247.998 243.638C245.324 240.969 243.822 237.349 243.822 233.575V215.002C243.822 211.227 245.324 207.607 247.998 204.938C250.672 202.269 254.298 200.77 258.08 200.77C261.861 200.77 265.488 202.269 268.162 204.938C270.836 207.607 272.338 211.227 272.338 215.002V233.575C272.338 237.349 270.836 240.969 268.162 243.638C265.488 246.307 261.861 247.807 258.08 247.807Z" fill="white"/>
</g>
</g>
<defs>
<clipPath id="clip0_25_2">
<rect width="260" height="236" fill="white" transform="translate(70 76)"/>
</clipPath>
<clipPath id="clip1_25_2">
<rect width="260" height="236" fill="white" transform="translate(70 76)"/>
</clipPath>
</defs>
</svg>
